X: 21461
T: Spanish Sett (tune 1)
C:
%R: jig
B: Elias Howe "The Musician's Companion" 1843 p.146 #1
S: http://imslp.org/wiki/The_Musician's_Companion_(Howe,_Elias)
Z: 2015 John Chambers <jc:trillian.mit.edu>
M: 6/8
L: 1/8
K: C
% - - - - - - - - - - - - - - - - - - - - - - - - -
V: 1 name="1"
G/c/ |\
e2e edc | cBB B2 d/e/ | f2f {g}fed | age c2 G/c/ |\
e2e edc | cBB B2 (d/e/) | fag fed | c3 c2 H|]
g |\
a2a {b}agf | g2g g=fe | f2f fed | age c2g |\
a2a {b}agf | g2g g2c' | bc'b ag^f | g3 g^f"^D.C."^d |]
e |\
d2e f2g | ({fg}a3 a2a) | g2e f2d | (g3 e2)e |\
d2e f2g | ({fg}a3 a2)a | g2e f2d | [e3c3] "^D.C."[e2c2] |]
% - - - - - - - - - - Dance description - - - - - - - - - -
%%begintext align
%% First four right and left,
%% balance four,
%% ladies chain,
%% promenade four,
%% sides the same.
%%endtext
% - - - - - - - - - - - - - - - - - - - - - - - - -
%%sep 1 1 300

%%sep 1 1 500

